src/24/actions/folder-sync.svg

<svg xmlns="http://www.w3.org/2000/svg" viewBox="0 0 24 24">
  <defs id="defs3051">
    <style type="text/css" id="current-color-scheme">
      .ColorScheme-Text {
        color:#5d656b;
      }
      </style>
  </defs>
 <path style="fill:currentColor;fill-opacity:1;stroke:none" 
     d="M 4 4 L 4 5 L 4 20 L 5 20 L 14 20 L 14 19 L 5 19 L 5 11 L 8 11 L 8 10.990234 L 8.0078125 11 L 10.007812 9 L 19 9 L 19 14 L 20 14 L 20 6 L 13.007812 6 L 11.007812 4 L 11 4.0097656 L 11 4 L 5 4 L 4 4 z M 17.5 15 C 16.115 15 15 16.115 15 17.5 C 15 17.933427 15.118052 18.334808 15.310547 18.689453 L 16.070312 17.929688 C 16.029283 17.792593 16 17.650791 16 17.5 C 16 16.669 16.669 16 17.5 16 C 17.650791 16 17.792594 16.029293 17.929688 16.070312 L 18.689453 15.310547 C 18.334797 15.118054 17.933427 15 17.5 15 z M 19.689453 16.310547 L 18.929688 17.070312 C 18.970717 17.207407 19 17.349209 19 17.5 C 19 18.331 18.331 19 17.5 19 C 17.349209 19 17.207406 18.970707 17.070312 18.929688 L 16.310547 19.689453 C 16.665194 19.881946 17.066573 20 17.5 20 C 18.885 20 20 18.885 20 17.5 C 20 17.066573 19.881948 16.665192 19.689453 16.310547 z "
     class="ColorScheme-Text"
     />
</svg>

<svg xmlns="http://www.w3.org/2000/svg" viewBox="0 0 24 24"><path d="M4 4v16h10v-1H5v-8h3v-.01l.008.01 2-2H19v5h1V6h-6.992l-2-2-.008.01V4H4zm13.5 11a2.495 2.495 0 0 0-2.5 2.5c0 .433.118.835.31 1.19l.76-.76a1.488 1.488 0 0 1-.07-.43c0-.831.669-1.5 1.5-1.5.15 0 .293.03.43.07l.76-.76A2.482 2.482 0 0 0 17.5 15zm2.19 1.31l-.76.76c.04.137.07.28.07.43 0 .831-.669 1.5-1.5 1.5-.15 0-.293-.03-.43-.07l-.76.76c.355.192.757.31 1.19.31 1.385 0 2.5-1.115 2.5-2.5 0-.433-.118-.835-.31-1.19z" fill="currentColor" color="#5d656b"/></svg>
